localPackages/DesignSystem/Sources/DesignSystem/Resources/Assets.xcassets/IconSet/ic-envelope-open-text.imageset/ic-envelope-open-text.svg

<svg width="24" height="24" viewBox="0 0 24 24" fill="none" xmlns="http://www.w3.org/2000/svg">
<g id="ic-envelope-open-text">
<path id="Icon" fill-rule="evenodd" clip-rule="evenodd" d="M11.2378 1.60333C11.7375 1.47207 12.2626 1.47207 12.7623 1.60333C13.3314 1.75284 13.8308 2.12697 14.4946 2.6243L14.6056 2.70742L15.9995 3.75008H18C18.8285 3.75008 19.5 4.42165 19.5 5.25008V6.37507L20.28 6.96007L20.3627 7.02206C20.9871 7.49 21.419 7.81369 21.7374 8.23329C22.0185 8.60371 22.2282 9.02316 22.3559 9.47027C22.5005 9.97674 22.5003 10.5165 22.5001 11.2967L22.5 11.4001V18.1501V18.1811C22.5001 18.7848 22.5001 19.283 22.4669 19.6889C22.4325 20.1105 22.3585 20.498 22.1731 20.862C21.8854 21.4265 21.4265 21.8855 20.862 22.1731C20.498 22.3586 20.1105 22.4325 19.6889 22.4669C19.283 22.5001 18.7848 22.5001 18.181 22.5001H18.15H5.85005H5.81905C5.21533 22.5001 4.71707 22.5001 4.31118 22.4669C3.8896 22.4325 3.50208 22.3586 3.13807 22.1731C2.57359 21.8855 2.11465 21.4265 1.82703 20.862C1.64156 20.498 1.56764 20.1105 1.53319 19.6889C1.50003 19.283 1.50004 18.7848 1.50005 18.181L1.50005 18.1501V11.4001L1.50002 11.2967C1.49976 10.5165 1.49957 9.97675 1.64422 9.47027C1.77191 9.02316 1.98164 8.60371 2.26271 8.23329C2.5811 7.81369 3.01299 7.49 3.63735 7.02206L3.72005 6.96007L4.50005 6.37507V5.25008C4.50005 4.42165 5.17162 3.75008 6.00005 3.75008H8.00058L9.39451 2.70741L9.50551 2.6243C10.1693 2.12697 10.6687 1.75284 11.2378 1.60333ZM12.3812 3.0541C12.6071 3.11345 12.8347 3.25988 13.4946 3.75008H10.5055C11.1654 3.25988 11.393 3.11345 11.6189 3.0541C11.8688 2.98848 12.1313 2.98848 12.3812 3.0541ZM19.5 11.4875V8.25017C20.1465 8.73614 20.3768 8.92173 20.5424 9.14C20.7111 9.36225 20.8369 9.61393 20.9135 9.88219C20.9624 10.0534 20.9839 10.2382 20.9932 10.5686L19.5 11.4875ZM18 12.4105V5.25008H6.00005V12.4105L11.607 15.8609C11.848 16.0093 12.1521 16.0093 12.3931 15.8609L18 12.4105ZM4.50005 11.4875V8.25017C3.85361 8.73614 3.62327 8.92173 3.45764 9.14C3.289 9.36225 3.16316 9.61393 3.08655 9.88219C3.03765 10.0534 3.01619 10.2382 3.00691 10.5686L4.50005 11.4875ZM3.00005 12.3256V18.1501C3.00005 18.7925 3.00063 19.2292 3.02821 19.5668C3.05507 19.8956 3.10377 20.0638 3.16354 20.1811C3.30735 20.4633 3.53682 20.6928 3.81906 20.8366C3.93636 20.8963 4.10451 20.945 4.43332 20.9719C4.77089 20.9995 5.20761 21.0001 5.85005 21.0001H18.15C18.7925 21.0001 19.2292 20.9995 19.5668 20.9719C19.8956 20.945 20.0637 20.8963 20.181 20.8366C20.4633 20.6928 20.6927 20.4633 20.8366 20.1811C20.8963 20.0638 20.945 19.8956 20.9719 19.5668C20.9995 19.2292 21 18.7925 21 18.1501V12.3256L13.1793 17.1384C12.4561 17.5835 11.544 17.5835 10.8208 17.1384L3.00005 12.3256ZM7.50005 8.25008C7.50005 7.83586 7.83583 7.50008 8.25005 7.50008H15.75C16.1643 7.50008 16.5 7.83586 16.5 8.25008C16.5 8.66429 16.1643 9.00008 15.75 9.00008H8.25005C7.83583 9.00008 7.50005 8.66429 7.50005 8.25008ZM8.25005 10.5001C7.83583 10.5001 7.50005 10.8359 7.50005 11.2501C7.50005 11.6643 7.83583 12.0001 8.25005 12.0001H15.75C16.1643 12.0001 16.5 11.6643 16.5 11.2501C16.5 10.8359 16.1643 10.5001 15.75 10.5001H8.25005Z" fill="#0F0F0F"/>
</g>
</svg>

<svg xmlns="http://www.w3.org/2000/svg" width="24" height="24" viewBox="0 0 24 24">
  <g class="ic-envelope-open-text">
    <path fill-rule="evenodd" d="M11.238 1.602a3 3 0 0 1 1.524 0c.57.15 1.069.524 1.733 1.021l.11.083L16 3.75h2a1.5 1.5 0 0 1 1.5 1.5v1.125l.78.585.083.062c.624.468 1.056.792 1.374 1.211.282.37.491.79.619 1.237.144.507.144 1.046.144 1.827v6.883c0 .604 0 1.102-.033 1.508-.034.422-.108.81-.294 1.173a3 3 0 0 1-1.311 1.311c-.364.186-.752.26-1.173.294-.406.033-.904.033-1.508.033H5.82c-.605 0-1.103 0-1.509-.033-.421-.035-.809-.108-1.173-.294a3 3 0 0 1-1.311-1.31c-.185-.365-.26-.752-.294-1.174-.033-.406-.033-.904-.033-1.508v-6.884c0-.78 0-1.32.144-1.827a3.75 3.75 0 0 1 .619-1.237c.318-.42.75-.743 1.374-1.21l.083-.063.78-.585V5.25A1.5 1.5 0 0 1 6 3.75h2l1.395-1.043.11-.083c.664-.497 1.164-.871 1.733-1.02Zm1.143 1.451c.226.06.454.206 1.114.696h-2.99c.66-.49.888-.637 1.114-.696a1.5 1.5 0 0 1 .762 0Zm7.119 8.434V8.248c.646.486.877.672 1.043.89.168.222.294.474.37.742.05.171.07.356.08.687l-1.493.918Zm-1.5.923V5.25H6v7.16l5.607 3.45a.75.75 0 0 0 .786 0L18 12.41Zm-13.5-.924V8.25c-.646.486-.877.672-1.042.89a2.25 2.25 0 0 0-.371.742c-.05.171-.07.356-.08.687l1.493.918Zm-1.5.839v5.824c0 .642 0 1.08.028 1.417.027.329.076.497.136.614a1.5 1.5 0 0 0 .655.656c.117.06.286.108.614.135.338.027.775.028 1.417.028h12.3c.643 0 1.08 0 1.417-.028.329-.027.497-.076.614-.135a1.5 1.5 0 0 0 .656-.656c.06-.117.108-.285.135-.614.027-.338.028-.774.028-1.417v-5.824l-7.82 4.813a2.25 2.25 0 0 1-2.36 0L3 12.325Zm4.5-4.076a.75.75 0 0 1 .75-.75h7.5a.75.75 0 1 1 0 1.5h-7.5a.75.75 0 0 1-.75-.75Zm.75 2.25a.75.75 0 0 0 0 1.5h7.5a.75.75 0 1 0 0-1.5h-7.5Z" class="Icon"/>
  </g>
</svg>
